T: Mountain Top, The
M: 4/4
L: 1/8
K: Gmin
|BGAG EGD2|B/2c/2dAc BGGA:|Bd~d2 edBA|B/2c/2def|g2ga|bgaf gfed|e/2f/2g fa|ge|
